icons/sqlite/sqlite-original.svg

<?xml version="1.0" encoding="UTF-8"?>
<svg xmlns="http://www.w3.org/2000/svg" xmlns:xlink="http://www.w3.org/1999/xlink" width="128px" height="128px" viewBox="0 0 128 128" version="1.1">
<defs>
<linearGradient id="linear0" gradientUnits="userSpaceOnUse" x1="-15.615" y1="-9.1083" x2="-6.741" y2="-9.1083" gradientTransform="matrix(-0.000000405589,9.271166,-9.271166,-0.000000405589,-25.852986,155.118367)">
<stop offset="0" style="stop-color:rgb(58.823529%,84.705882%,96.078431%);stop-opacity:1;"/>
<stop offset="0.92024" style="stop-color:rgb(5.882353%,49.803922%,80%);stop-opacity:1;"/>
<stop offset="1" style="stop-color:rgb(5.882353%,49.803922%,80%);stop-opacity:1;"/>
</linearGradient>
</defs>
<g id="surface1">
<path style=" stroke:none;fill-rule:nonzero;fill:rgb(4.705882%,49.803922%,80%);fill-opacity:1;" d="M 69.5 99.175781 C 69.441406 98.445312 69.40625 97.976562 69.40625 97.976562 C 69.40625 97.976562 67.199219 83.085938 64.570312 78.640625 C 64.15625 77.933594 64.613281 75.046875 65.777344 70.761719 C 66.457031 71.929688 69.316406 76.953125 69.894531 78.570312 C 70.542969 80.394531 70.675781 80.917969 70.675781 80.917969 C 70.675781 80.917969 69.105469 72.835938 66.53125 68.121094 C 67.09375 66.214844 67.769531 64.105469 68.535156 61.855469 C 69.507812 63.566406 71.847656 67.714844 72.363281 69.15625 C 72.464844 69.449219 72.554688 69.699219 72.632812 69.929688 C 72.65625 69.792969 72.683594 69.65625 72.707031 69.515625 C 72.117188 67.011719 70.957031 62.65625 69.371094 59.433594 C 72.890625 41.105469 84.902344 16.609375 97.210938 5.679688 L 16.898438 5.679688 C 11.511719 5.679688 7.109375 10.085938 7.109375 15.46875 L 7.109375 104.039062 C 7.109375 109.421875 11.515625 113.828125 16.898438 113.828125 L 69.796875 113.828125 C 69.414062 109.210938 69.285156 104.101562 69.5 99.175781 "/>
<path style=" stroke:none;fill-rule:nonzero;fill:url(#linear0);" d="M 65.777344 70.761719 C 66.457031 71.929688 69.316406 76.949219 69.894531 78.570312 C 70.542969 80.394531 70.675781 80.917969 70.675781 80.917969 C 70.675781 80.917969 69.105469 72.835938 66.53125 68.121094 C 67.09375 66.214844 67.769531 64.105469 68.535156 61.851562 C 69.421875 63.417969 71.457031 67.019531 72.1875 68.722656 C 72.214844 68.402344 72.242188 68.082031 72.269531 67.761719 C 71.621094 65.265625 70.636719 61.996094 69.371094 59.433594 C 72.613281 42.5625 83.050781 20.464844 94.296875 8.535156 L 16.898438 8.535156 C 13.074219 8.535156 9.964844 11.644531 9.964844 15.46875 L 9.964844 97.578125 C 27.492188 90.847656 48.628906 84.699219 66.820312 84.964844 C 66.148438 82.359375 65.378906 80.003906 64.570312 78.640625 C 64.15625 77.933594 64.613281 75.042969 65.777344 70.761719 "/>
<path style=" stroke:none;fill-rule:nonzero;fill:rgb(0%,22.745098%,34.117647%);fill-opacity:1;" d="M 115.949219 2.78125 C 110.449219 -2.125 103.785156 -0.152344 97.214844 5.679688 C 96.238281 6.546875 95.265625 7.507812 94.300781 8.539062 C 83.050781 20.464844 72.617188 42.5625 69.375 59.433594 C 70.636719 61.996094 71.625 65.265625 72.269531 67.761719 C 72.4375 68.402344 72.589844 69.003906 72.710938 69.515625 C 72.996094 70.722656 73.148438 71.511719 73.148438 71.511719 C 73.148438 71.511719 73.046875 71.128906 72.632812 69.929688 C 72.554688 69.699219 72.464844 69.445312 72.363281 69.15625 C 72.320312 69.03125 72.257812 68.882812 72.191406 68.722656 C 71.457031 67.019531 69.425781 63.417969 68.535156 61.855469 C 67.773438 64.105469 67.097656 66.214844 66.53125 68.121094 C 69.109375 72.835938 70.679688 80.917969 70.679688 80.917969 C 70.679688 80.917969 70.542969 80.394531 69.898438 78.570312 C 69.320312 76.949219 66.457031 71.929688 65.78125 70.761719 C 64.617188 75.042969 64.15625 77.933594 64.574219 78.640625 C 65.382812 80.003906 66.148438 82.363281 66.824219 84.964844 C 68.347656 90.832031 69.410156 97.976562 69.410156 97.976562 C 69.410156 97.976562 69.441406 98.445312 69.503906 99.175781 C 69.289062 104.101562 69.417969 109.210938 69.800781 113.828125 C 70.304688 119.9375 71.253906 125.191406 72.464844 128 L 73.292969 127.550781 C 71.511719 122.015625 70.789062 114.757812 71.105469 106.394531 C 71.585938 93.601562 74.527344 78.179688 79.960938 62.105469 C 89.152344 37.835938 101.898438 18.367188 113.5625 9.070312 C 102.929688 18.671875 88.539062 49.753906 84.230469 61.265625 C 79.410156 74.15625 75.992188 86.25 73.929688 97.839844 C 77.480469 86.976562 88.976562 82.308594 88.976562 82.308594 C 88.976562 82.308594 94.613281 75.351562 101.203125 65.421875 C 97.253906 66.324219 90.773438 67.863281 88.605469 68.773438 C 85.40625 70.117188 84.539062 70.574219 84.539062 70.574219 C 84.539062 70.574219 94.910156 64.261719 103.808594 61.402344 C 116.042969 42.132812 129.371094 14.753906 115.949219 2.78125 "/>
</g>
</svg>

<svg version="1.1" viewBox="0 0 128 128" xmlns="http://www.w3.org/2000/svg">
 <defs>
  <linearGradient id="a" x1="-15.615" x2="-6.741" y1="-9.1083" y2="-9.1083" gradientTransform="matrix(-4.0559e-7 9.2712 -9.2712 -4.0559e-7 -25.853 155.12)" gradientUnits="userSpaceOnUse">
   <stop stop-color="#95d7f4" offset="0"/>
   <stop stop-color="#0f7fcc" offset=".92024"/>
   <stop stop-color="#0f7fcc" offset="1"/>
  </linearGradient>
 </defs>
 <g>
  <path d="m69.5 99.176c-0.058594-0.73047-0.09375-1.1992-0.09375-1.1992s-2.207-14.891-4.8359-19.336c-0.41406-0.70703 0.042969-3.5938 1.207-7.8789 0.67969 1.168 3.5391 6.1914 4.1172 7.8086 0.64844 1.8242 0.78125 2.3477 0.78125 2.3477s-1.5703-8.082-4.1445-12.797c0.5625-1.9062 1.2383-4.0156 2.0039-6.2656 0.97266 1.7109 3.3125 5.8594 3.8281 7.3008 0.10156 0.29297 0.19141 0.54297 0.26953 0.77344 0.023438-0.13672 0.050782-0.27344 0.074219-0.41406-0.58984-2.5039-1.75-6.8594-3.3359-10.082 3.5195-18.328 15.531-42.824 27.84-53.754h-80.312c-5.3867 0-9.7891 4.4062-9.7891 9.7891v88.57c0 5.3828 4.4062 9.7891 9.7891 9.7891h52.898c-0.38281-4.6172-0.51172-9.7266-0.29688-14.652" fill="#0b7fcc"/>
  <path d="m65.777 70.762c0.67969 1.168 3.5391 6.1875 4.1172 7.8086 0.64844 1.8242 0.78125 2.3477 0.78125 2.3477s-1.5703-8.082-4.1445-12.797c0.5625-1.9062 1.2383-4.0156 2.0039-6.2695 0.88672 1.5664 2.9219 5.168 3.6523 6.8711 0.027344-0.32031 0.054688-0.64062 0.082031-0.96094-0.64844-2.4961-1.6328-5.7656-2.8984-8.3281 3.2422-16.871 13.68-38.969 24.926-50.898h-77.398c-3.8242 0-6.9336 3.1094-6.9336 6.9336v82.109c17.527-6.7305 38.664-12.879 56.855-12.613-0.67187-2.6055-1.4414-4.9609-2.25-6.3242-0.41406-0.70703 0.042969-3.5977 1.207-7.8789" fill="url(#a)"/>
  <path d="m115.95 2.7812c-5.5-4.9062-12.164-2.9336-18.734 2.8984-0.97656 0.86719-1.9492 1.8281-2.9141 2.8594-11.25 11.926-21.684 34.023-24.926 50.895 1.2617 2.5625 2.25 5.832 2.8945 8.3281 0.16797 0.64062 0.32031 1.2422 0.44141 1.7539 0.28516 1.207 0.4375 1.9961 0.4375 1.9961s-0.10156-0.38281-0.51563-1.582c-0.078124-0.23047-0.16797-0.48438-0.26953-0.77344-0.042969-0.125-0.10547-0.27344-0.17188-0.43359-0.73438-1.7031-2.7656-5.3047-3.6562-6.8672-0.76172 2.25-1.4375 4.3594-2.0039 6.2656 2.5781 4.7148 4.1484 12.797 4.1484 12.797s-0.13672-0.52344-0.78125-2.3477c-0.57813-1.6211-3.4414-6.6406-4.1172-7.8086-1.1641 4.2812-1.625 7.1719-1.207 7.8789 0.80859 1.3633 1.5742 3.7227 2.25 6.3242 1.5234 5.8672 2.5859 13.012 2.5859 13.012s0.03125 0.46875 0.09375 1.1992c-0.21484 4.9258-0.085937 10.035 0.29688 14.652 0.50391 6.1094 1.4531 11.363 2.6641 14.172l0.82812-0.44922c-1.7812-5.5352-2.5039-12.793-2.1875-21.156 0.48047-12.793 3.4219-28.215 8.8555-44.289 9.1914-24.27 21.938-43.738 33.602-53.035-10.633 9.6016-25.023 40.684-29.332 52.195-4.8203 12.891-8.2383 24.984-10.301 36.574 3.5508-10.863 15.047-15.531 15.047-15.531s5.6367-6.957 12.227-16.887c-3.9492 0.90234-10.43 2.4414-12.598 3.3516-3.1992 1.3438-4.0664 1.8008-4.0664 1.8008s10.371-6.3125 19.27-9.1719c12.234-19.27 25.562-46.648 12.141-58.621" fill="#003956"/>
 </g>
</svg>
